app/assets/images/idv/real-id.svg

<svg width="112" height="81" viewBox="0 0 112 81" fill="none" xmlns="http://www.w3.org/2000/svg">
<circle cx="71.1055" cy="40.6807" r="40" fill="#EBF3FA"/>
<path fill-rule="evenodd" clip-rule="evenodd" d="M83.0726 64.0925H5.05496C2.89327 64.0925 1.14062 62.3015 1.14062 60.0925V21.2695C1.14062 19.0605 2.89327 17.2695 5.05496 17.2695H83.0726C85.2343 17.2695 86.987 19.0605 86.987 21.2695V60.0925C86.987 62.3015 85.2343 64.0925 83.0726 64.0925Z" fill="white"/>
<path fill-rule="evenodd" clip-rule="evenodd" d="M83.0726 64.0925H5.05496C2.89327 64.0925 1.14062 62.3015 1.14062 60.0925V21.2695C1.14062 19.0605 2.89327 17.2695 5.05496 17.2695H83.0726C85.2343 17.2695 86.987 19.0605 86.987 21.2695V60.0925C86.987 62.3015 85.2343 64.0925 83.0726 64.0925Z" stroke="#112E51"/>
<path fill-rule="evenodd" clip-rule="evenodd" d="M28.3173 59.0765H8.20833C7.32032 59.0765 6.59961 58.4154 6.59961 57.6008V33.9894C6.59961 33.1748 7.32032 32.5137 8.20833 32.5137H28.3173C29.2053 32.5137 29.9261 33.1748 29.9261 33.9894V57.6008C29.9261 58.4154 29.2053 59.0765 28.3173 59.0765Z" fill="#EBF3FA"/>
<mask id="mask0_628_24267" style="mask-type:luminance" maskUnits="userSpaceOnUse" x="8" y="35" width="20" height="25">
<path fill-rule="evenodd" clip-rule="evenodd" d="M12.6786 40.7001V41.3058C12.1284 41.3987 11.7085 41.8829 11.7085 42.4664V43.8399C11.7085 44.4342 12.1428 44.9241 12.7075 45.0055C12.9086 46.9486 14.1111 48.5909 15.7842 49.3931V51.1973H15.3957C11.5364 51.1973 8.4082 54.3602 8.4082 58.2621V59.1441H27.8182V58.2621C27.8182 54.3602 24.6893 51.1973 20.8307 51.1973H20.4422V49.3931C22.1153 48.5909 23.3178 46.9486 23.5181 45.0055C24.0836 44.9241 24.5179 44.4342 24.5179 43.8399V42.4664C24.5179 41.8829 24.0989 41.3987 23.5479 41.3058V40.7001C23.5479 37.6662 21.1147 35.2061 18.1136 35.2061C15.1117 35.2061 12.6786 37.6662 12.6786 40.7001Z" fill="white"/>
</mask>
<g mask="url(#mask0_628_24267)">
<path fill-rule="evenodd" clip-rule="evenodd" d="M1.2793 63.2543H34.9442V31.0967H1.2793V63.2543Z" fill="#C8D3DD"/>
</g>
<path d="M56.248 25.4014C56.248 24.2968 57.1435 23.4014 58.248 23.4014H81.5859C82.6905 23.4014 83.5859 24.2968 83.5859 25.4014V48.7393C83.5859 49.8438 82.6905 50.7393 81.5859 50.7393H58.248C57.1435 50.7393 56.248 49.8438 56.248 48.7393V25.4014Z" fill="#EBF3FA"/>
<rect x="6.71875" y="23.4014" width="44.4873" height="3.34375" rx="1.67188" fill="#C8D3DD"/>
<rect x="34.9043" y="31.3262" width="16.3027" height="3.34375" rx="1.67188" fill="#C8D3DD"/>
<rect x="34.9043" y="39.251" width="16.3027" height="3.34375" rx="1.67188" fill="#C8D3DD"/>
<rect x="34.9043" y="47.1758" width="16.3027" height="3.34375" rx="1.67188" fill="#C8D3DD"/>
<rect x="34.9043" y="55.7051" width="12.3" height="3.34375" rx="1.67188" fill="#C8D3DD"/>
<rect x="52.6738" y="55.7051" width="29.9717" height="3.34375" rx="1.67188" fill="#C8D3DD"/>
<circle cx="69.917" cy="37.0703" r="10.9443" fill="#0071BB"/>
<path d="M69.6729 27.211C69.7491 26.9764 70.0809 26.9764 70.1571 27.211L72.2382 33.616C72.2723 33.7209 72.3701 33.792 72.4803 33.792H79.215C79.4617 33.792 79.5642 34.1075 79.3647 34.2525L73.9162 38.211C73.827 38.2759 73.7896 38.3908 73.8237 38.4957L75.9048 44.9007C75.9811 45.1353 75.7126 45.3303 75.5131 45.1854L70.0646 41.2268C69.9754 41.162 69.8546 41.162 69.7653 41.2268L64.3169 45.1854C64.1173 45.3303 63.8489 45.1353 63.9251 44.9007L66.0062 38.4957C66.0403 38.3908 66.003 38.2759 65.9138 38.211L60.4653 34.2525C60.2658 34.1075 60.3683 33.792 60.6149 33.792H67.3496C67.4599 33.792 67.5576 33.7209 67.5917 33.616L69.6729 27.211Z" fill="white"/>
</svg>

<svg xmlns="http://www.w3.org/2000/svg" width="112" height="81" fill="none" viewBox="0 0 112 81"><circle cx="71.106" cy="40.681" r="40" fill="#EBF3FA"/><path fill="#fff" fill-rule="evenodd" d="M83.073 64.093H5.055c-2.162 0-3.914-1.792-3.914-4V21.27c0-2.21 1.752-4 3.914-4h78.018c2.161 0 3.914 1.79 3.914 4v38.823c0 2.208-1.753 4-3.914 4" clip-rule="evenodd"/><path stroke="#112E51" d="M83.073 64.093H5.055c-2.162 0-3.914-1.792-3.914-4V21.27c0-2.21 1.752-4 3.914-4h78.018c2.161 0 3.914 1.79 3.914 4v38.823c0 2.208-1.753 4-3.914 4Z" clip-rule="evenodd"/><path fill="#EBF3FA" fill-rule="evenodd" d="M28.317 59.077H8.208c-.888 0-1.608-.662-1.608-1.476V33.989c0-.814.72-1.475 1.608-1.475h20.11c.887 0 1.608.66 1.608 1.475v23.612c0 .814-.72 1.476-1.609 1.476" clip-rule="evenodd"/><mask id="a" width="20" height="25" x="8" y="35" maskUnits="userSpaceOnUse" style="mask-type:luminance"><path fill="#fff" fill-rule="evenodd" d="M12.679 40.7v.606c-.55.093-.97.577-.97 1.16v1.374c0 .594.434 1.084.999 1.165a5.5 5.5 0 0 0 3.076 4.388v1.804h-.388c-3.86 0-6.988 3.163-6.988 7.065v.882h19.41v-.882c0-3.902-3.129-7.065-6.987-7.065h-.389v-1.804a5.49 5.49 0 0 0 3.076-4.388c.566-.08 1-.57 1-1.165v-1.374c0-.583-.42-1.067-.97-1.16V40.7c0-3.034-2.433-5.494-5.434-5.494s-5.435 2.46-5.435 5.494" clip-rule="evenodd"/></mask><g mask="url(#a)"><path fill="#C8D3DD" fill-rule="evenodd" d="M1.28 63.254h33.664V31.097H1.28z" clip-rule="evenodd"/></g><path fill="#EBF3FA" d="M56.248 25.401a2 2 0 0 1 2-2h23.338a2 2 0 0 1 2 2V48.74a2 2 0 0 1-2 2H58.248a2 2 0 0 1-2-2z"/><rect width="44.487" height="3.344" x="6.719" y="23.401" fill="#C8D3DD" rx="1.672"/><rect width="16.303" height="3.344" x="34.904" y="31.326" fill="#C8D3DD" rx="1.672"/><rect width="16.303" height="3.344" x="34.904" y="39.251" fill="#C8D3DD" rx="1.672"/><rect width="16.303" height="3.344" x="34.904" y="47.176" fill="#C8D3DD" rx="1.672"/><rect width="12.3" height="3.344" x="34.904" y="55.705" fill="#C8D3DD" rx="1.672"/><rect width="29.972" height="3.344" x="52.674" y="55.705" fill="#C8D3DD" rx="1.672"/><circle cx="69.917" cy="37.07" r="10.944" fill="#0071BB"/><path fill="#fff" d="M69.673 27.211a.255.255 0 0 1 .484 0l2.081 6.405a.255.255 0 0 0 .242.176h6.735c.247 0 .35.316.15.46l-5.449 3.959a.255.255 0 0 0-.092.285l2.08 6.405a.255.255 0 0 1-.39.284l-5.45-3.958a.255.255 0 0 0-.299 0l-5.448 3.958a.255.255 0 0 1-.392-.284l2.081-6.405a.255.255 0 0 0-.092-.285l-5.449-3.959a.255.255 0 0 1 .15-.46h6.735c.11 0 .208-.071.242-.176z"/></svg>
